X: 39580
T: Teelin Petronella, The
R: barndance
M: 4/4
K: Gmajor
Ac|:|:B2 d2 A2 d2|G2 AB G2 Bd|g/a/g fg a2 ga|b2 g2 d2 c2|
B2 d2 A2 d2|G2 AB G2 Bd|g/a/g fg a2 ga|1 b2 g2 gedc:|2 b2 g2 g2||
|:Bc|d2 b2 d2 b2|d2 b2 bagf|e2 c'2 e2 fg|agfe dcBc|
d2 b2 d2 b2|d2 b2 bagf|e2 c'2 e2 fg|agfa g2:|

